!!!!SEGMENT: pl-wnifc--13846--143_anonim--piesni-polskie-i-ruskie-ludu-galicyjskiego-143-oj-zebym-ja-jadla-pila.krn
!!!kernsource:
!!!cenid: 18xx:3365
!!!COM: Anonim
!!!COM-rismid: pe30004985
!!!CDT:
!!!CNT:
!!!GTL: Pieśni polskie i ruskie ludu galicyjskiego
!!!OTL: 143. Oj żebym ja jadła, piła
!!!PDT: 1833
!!!AGN:
!!!SMS-siglum: PL-Wnifc
!!!SMS-shelfmark: 13846
!!!SMS-shelfwork: 143 G
!!!NIFC-rismid: 1001039675
!!!URL-scan: http://repozytorium.nifc.pl/skany/pl-wnifc-nut--13846
!!!ONB-nifc:
**kern	**kern	**dynam	**kern	**text
*part2	*part2	*part2	*part1	*part1
*group2	*group2	*	*group1	*group1
*staff3	*staff2	*	*staff1	*staff1
*I"[Fortepian.]	*I"[Fortepian.]	*	*I"[Głos.]	*
*Ipiano	*Ipiano	*Ivox	*	*
*ICklav	*ICklav	*ICvox	*	*
*IGacmp	*IGacmp	*IGsolo	*	*
*clefF4	*clefG2	*	*clefG2	*
*k[f#c#g#]	*k[f#c#g#]	*	*k[f#c#g#]	*
*A:	*A:	*	*A:	*
*M2/4	*M2/4	*	*M2/4	*
=1-	=1-	=1-	=1-	=1-
!	!	!	!LO:TX:a:B:t=E.240.	!
!	!	!	!LO:TX:a:B:t=Vivace	!
4AA/ 4AAA/	8.a/|L	.	8.a/	Oj
.	16b\|Jk	.	16b/	że-
4c#\ 4A\ 4E\	8cc#\|L	.	8cc#\	-bym
.	8dd\|J	.	8dd\	ja
=2	=2	=2	=2	=2
4AA/ 4AAA/	8ee\|L	.	8ee\	ja-
.	8dd#X\|J	.	8dd#X\	-dła,
4c#\ 4A\ 4E\	16ff#\|KL	.	16ff#\	pi-
.	8.ee\|J	.	8.ee\	-ła,
=3	=3	=3	=3	=3
4AA/ 4AAA/	8.a/L	.	8.a/	wy-
.	16b\Jk	.	16b/	-spa-
4c#\ 4A\ 4E\	8cc#\|L	.	8cc#\	-ła
.	8dd\|J	.	8dd\	sie,
!!linebreak:original
=4	=4	=4	=4	=4
4AA/ 4AAA/	8ee\L	.	8ee\	nie
.	8dd#X\J	.	8dd#X\	ro-
4c#\ 4A\ 4E\	16ff#\KL	.	16ff#\	-bi-
.	8.ee\J	.	8.ee\	-ła,
=5	=5	=5	=5	=5
4EE/	8ee\L	.	8ee\	ro-
.	8ee\	.	8ee\	-sła-
4d\ 4B\ 4G#\ 4E\	8ddn\	.	8.ddn\	-bym
.	8b\J	.	.	.
.	.	.	16b\	ja,
=6	=6	=6	=6	=6
4AA/	8cc#\	.	8cc#\	ro-
!	!	!LO:DY:rj	!	!
.	4cc#\	sf	(4cc#\	-sła,
4c#\ 4A\ 4E\	.	.	.	.
.	8a/	.	8a/)	.
!!linebreak:original
=7	=7	=7	=7	=7
4EE/	8b\|L	.	8b\	i
.	8dd\|	.	8dd\	za
4d\ 4B\ 4G#\ 4E\	8.b\^	.	8.b\	mąż
.	16g#/|Jk	.	16g#/	bym
=8	=8	=8	=8	=8
4AA/	8a/	.	8a/	po-
.	(>8qa/	sf	.	.
.	4aa\)	.	(4aa\	-sła,
4c#\ 4A\ 4E\	.	.	.	.
.	8ff#\	.	8ff#\)	.
=9	=9	=9	=9	=9
4EE/	8ee\|L	.	8ee\	ros-
.	8ee\|J	.	8ee\	-ła
.	(16qff#/LL	.	.	.
.	16qee/JJ)	.	.	.
4B\ 4G#\ 4E\	8.dd\L	.	8.dd\	bym
.	16b\Jk	.	16b\	ja
!!linebreak:original
=10	=10	=10	=10	=10
4AA/	8cc#\	.	8cc#\	ro-
.	4cc#\	.	(4cc#\	-sła,
4c#\ 4A\ 4E\	.	.	.	.
.	8a/	.	8a/)	.
=11	=11	=11	=11	=11
4EE/	8b\L	.	8b\	i
.	8dd\J	.	8dd\	za
4d\ 4B\ 4G#\ 4E\	8.b\L	.	8.b\	mąż
.	16g#/Jk	.	16g#/	bym
=12	=12	=12	=12	=12
4AA/	8a/	.	8a/	po-
.	4a/	.	4a/	-sła.
4c#\ 4A\ 4E\	.	.	.	.
.	8r	.	8r	.
==	==	==	==	==
*-	*-	*-	*-	*-
!!!system-decoration: g1{g2}
!!!RDF**kern: > = above
!!!RDF**kern: < = below
!!!RDF**kern: | = vertical stroke
!!!AIN: 1 piano
!!!ENC: Katarzyna Serwa
!!!END: 2021-11-11
